img/bracket.svg

<svg id="Layer_1" data-name="Layer 1" xmlns="http://www.w3.org/2000/svg" viewBox="0 0 52.47 153.8"><defs><style>.cls-1{fill:#10b5b7;}</style></defs><title>bracket</title><path class="cls-1" d="M42.32,153.8q-12.39,0-18.92-6.28t-6.54-18V98.23q0-7.74-2.58-11.35T5.16,81.72L0,80.34V73.29l5.16-1.38q6.54-1.37,9.12-5.08T16.86,55.4V24.26q0-11.87,7-18.06T42.32,0H52.47V12.21H44.21a10.84,10.84,0,0,0-8.43,3.61q-3.27,3.61-3.27,10.67V58.32A20,20,0,0,1,30,68.81,16.88,16.88,0,0,1,23.83,75a14.92,14.92,0,0,1-7.31,2.06v-.69a14.48,14.48,0,0,1,7.31,2.15A17.43,17.43,0,0,1,30,84.9a20.15,20.15,0,0,1,2.5,10.41v32q0,7.05,3.27,10.58a11,11,0,0,0,8.43,3.53h8.26V153.8Z"/></svg>

<?xml version="1.0" encoding="utf-8"?>
<!-- Generator: Adobe Illustrator 21.1.0, SVG Export Plug-In . SVG Version: 6.00 Build 0)  -->
<svg version="1.1" id="Layer_1" xmlns="http://www.w3.org/2000/svg" xmlns:xlink="http://www.w3.org/1999/xlink" x="0px" y="0px"
	 viewBox="0 0 52.5 153.8" style="enable-background:new 0 0 52.5 153.8;" xml:space="preserve">
<style type="text/css">
	.st0{fill:#10B5B7;}
</style>
<title>bracket</title>
<path class="st0" d="M42.3,153.8c-8.3,0-14.6-2.1-18.9-6.3c-4.4-4.2-6.5-10.2-6.5-18V98.2c0-5.2-0.9-8.9-2.6-11.3s-4.8-4.1-9.1-5.2
	L0,80.3v-7l5.2-1.4c4.4-0.9,7.4-2.6,9.1-5.1s2.6-6.3,2.6-11.4V24.3c0-7.9,2.3-13.9,7-18.1S34.7,0,42.3,0h10.2v12.2h-8.3
	c-3.2-0.1-6.3,1.2-8.4,3.6c-2.2,2.4-3.3,6-3.3,10.7v31.8c0.1,3.7-0.7,7.3-2.5,10.5c-1.5,2.6-3.6,4.7-6.2,6.2c-2.2,1.3-4.7,2-7.3,2.1
	v-0.7c2.6,0.1,5.1,0.8,7.3,2.2c2.6,1.6,4.7,3.8,6.2,6.4c1.8,3.2,2.6,6.8,2.5,10.4v32c0,4.7,1.1,8.2,3.3,10.6
	c2.2,2.3,5.2,3.6,8.4,3.5h8.3v12.4H42.3z"/>
</svg>
